X:1
T:Brownwell, 88.88.88
T:Brownwell, 88.88.88
T:Franz Joseph Haydn (1732–1809)
T:Public Domain Courtesy of the Cyber Hymnal™
C:Franz Joseph Haydn (1732–1809)
Z:Public Domain
Z:Courtesy of the Cyber Hymnal™
%%score ( 1 2 ) ( 3 4 )
L:1/8
Q:1/4=115
M:3/4
K:Ab
V:1 treble 
V:2 treble 
V:3 bass 
V:4 bass 
V:1
 [CE]2 | z2 E2 [EA]2 | (A2 G2) [EB]2 | z2 B2 [Ed]2 | (d2 c2) [CE]2 | (A2 c2) [_Gd]2 | %6
 (e2 dc) (dB) | (A2 c2) [DB]2 | [CA]4 [CA]2 | (A2 G2) [B,F]2 | E4 E2 | (E2 B2) [B,D]2 | %12
 [A,C]4 [A,D]2 | E4 [=DA]2 | [EG]4 (BA) | [EG]4 [=DF]2 | E4 [Ge]2 | (e2 d2) [EB]2 | (d2 c2) [EA]2 | %19
 (A2 G2) [EA]2 | [EB]4 E2 | (A2 c2) [_Ge]2 | (e2 dc) (dB) | (A2 c2) [EB]2 | [EA]4 |] %25
V:2
 x2 | C4 x2 | E4 x2 | E4 x2 | E4 x2 | E4 x2 | F4 F2 | E4 x2 | x6 | D4 x2 | E4 E2 | D4 x2 | x6 | %13
 (A,2 E2) x2 | x4 F2 | x6 | E4 x2 | A4 x2 | E4 x2 | E4 x2 | x4 E2 | E4 x2 | F4 F2 | E4 x2 | x4 |] %25
V:3
 [A,,E,]2 | [A,,A,]4 [C,A,]2 | [E,B,]4 [E,G,]2 | [G,B,]4 [E,G,]2 | A,4 [A,,A,]2 | %5
 [C,A,]4 [A,,A,]2 | (A,2 B,2) (B,D) | (C2 A,2) [E,G,]2 | [A,,A,]4 [A,,E,]2 | [B,,E,]4 [D,G,]2 | %10
 [C,A,]4 [A,,C]2 | (B,2 E,2) [G,,E,]2 | [A,,E,]4 [B,,E,]2 | [C,A,]4 [F,A,]2 | [E,B,]4 [A,,C]2 | %15
 [B,,B,]4 [B,,A,]2 | [E,G,]4 [E,B,]2 | [F,A,]4 [G,B,]2 | A,4 [C,A,]2 | [B,,D]4 [A,,C]2 | %20
 [G,,B,]2 [E,G,]2 [D,B,]2 | [C,A,]4 [A,,A,]2 | (A,2 B,2) (B,D) | (C2 [A,E]2) [E,G,D]2 | %24
 [A,,A,C]4 |] %25
V:4
 x2 | x6 | x6 | x6 | A,4 x2 | x6 | D,4 D,2 | E,4 x2 | x6 | x6 | x6 | G,,4 x2 | x6 | x6 | x6 | x6 | %16
 x6 | x6 | A,4 x2 | x6 | x6 | x6 | D,4 D,2 | E,4 x2 | x4 |] %25

